src/assets/images/real-time-privacy-2.svg

<svg height="180" viewBox="0 0 248 180" width="248" xmlns="http://www.w3.org/2000/svg"><g fill="none" fill-rule="evenodd"><g transform="translate(48 140)"><path d="m30 10h-28c-1.09999997 0-2 .9000001-2 2v18c0 1.1000002.90000003 2 2 2h10.6800003c-.5 1.2199992-1.7200003 2.7800006-4.6800003 4h16c-2.9599992-1.2199994-4.1800003-2.7800008-4.6800003-4h10.6800003c1.1000002 0 2-.8999998 2-2v-18c0-1.0999999-.8999998-2-2-2zm0 18h-28v-16h28z" fill="#dda032"/><path d="m89 0h-28c-1.1 0-2 .90000008-2 2v18c0 1.1000002.9 2 2 2h10.6800003c-.5 1.2199992-1.7200003 2.7800006-4.6800003 4h16c-2.9599992-1.2199994-4.1800003-2.7800008-4.6800003-4h10.6800003c1.1000002 0 2-.8999998 2-2v-18c0-1.09999992-.8999998-2-2-2zm0 18h-28v-16h28z" fill="#78af9f"/><path d="m150 14h-28c-1.1 0-2 .9000001-2 2v18c0 1.1000002.9 2 2 2h10.68c-.5 1.2199992-1.72 2.7800006-4.68 4h16c-2.959999-1.2199994-4.18-2.7800008-4.68-4h10.68c1.1 0 2-.8999998 2-2v-18c0-1.0999999-.9-2-2-2zm0 18h-28v-16h28z" fill="#659cc8"/><path d="m6 22h12v1h-12zm0-3h8v1h-8zm0-3h16v1h-16z" fill="#dda032"/><path d="m65 12h12v1h-12zm0-3h8v1h-8zm0-3h16v1h-16z" fill="#78af9f"/><path d="m126 26h12v1h-12zm0-3h8v1h-8zm0-3h16v1h-16z" fill="#659cc8"/></g><g stroke-linejoin="round" stroke-width="2" transform="translate(64 115)"><g stroke-dasharray="2"><path d="m16 1h10" stroke="#dda032" transform="matrix(-1 0 0 1 42 0)"/><path d="m28 1h10" stroke="#78af9f" transform="matrix(-1 0 0 1 66 0)"/><path d="m82 1h10" stroke="#78af9f" transform="matrix(-1 0 0 1 174 0)"/><path d="m94 1h10" stroke="#659cc8" transform="matrix(-1 0 0 1 198 0)"/></g><path d="m0 1h10c2.209139 0 4 1.790861 4 4v26" stroke="#dda032" transform="matrix(-1 0 0 1 14 0)"/><path d="m106 1h10c2.209139 0 4 1.790861 4 4v30" stroke="#659cc8"/><path d="m40 1h13c2.209139 0 4 1.790861 4 4v16" stroke="#78af9f"/><path d="m63 1h13c2.209139 0 4 1.790861 4 4v16" stroke="#78af9f" transform="matrix(-1 0 0 1 143 0)"/></g><g fill="#5d5b5c" transform="translate(57 31)"><path d="m82 39h-30c-1.6499999 0-3 1.3499994-3 3v6c0 1.6500006 1.3500001 3 3 3h30c1.6500003 0 3-1.3499994 3-3v-6c0-1.6500006-1.3499997-3-3-3zm-27 9h-3v-6h3zm6 0h-3v-6h3zm6 0h-3v-6h3zm6 0h-3v-6h3zm9-23h-30c-1.6499999 0-3 1.3500001-3 3v6c0 1.6500006 1.3500001 3 3 3h30c1.6500003 0 3-1.3499994 3-3v-6c0-1.6499999-1.3499997-3-3-3zm-27 9h-3v-6h3zm6 0h-3v-6h3zm6 0h-3v-6h3zm6 0h-3v-6h3zm9-3h-3v-3h3z"/><g transform="translate(65)"><path d="m.78613281 17.8888889v-.9775391l3.57519531-4.8466797v-.0820312h-3.55468749v-1.3330078h5.52343749v1.0595703l-3.5 4.7646484v.0751953h3.56835938v1.3398438z" transform="matrix(.9961947 -.08715574 .08715574 .9961947 -1.229978 .367387)"/><path d="m8.56391059 13.6773563v-1.2490486l4.56819881-6.19283546v-.10481527h-4.54199499v-1.70324812h7.05756149v1.3538639l-4.4721182 6.08802025v.0960806h4.5594642v1.7119827z"/><path d="m18.6750217 11.7949636v-1.5199919l5.5591313-7.53618372v-.12755177h-5.5272434v-2.07271624h8.5884858v1.64754368l-5.4422088 7.40863193v.11692245h5.548502v2.08334557z" transform="matrix(.9961947 .08715574 -.08715574 .9961947 .625135 -1.984459)"/></g></g><g><circle cx="20" cy="20" opacity=".146116" r="19" stroke="#eed9b7" stroke-width="2"/><path d="m14.47 27h9.78v-1.44h-7.42l3.74-3.32c2.46-2.14 3.54-3.4 3.54-5.44v-.04c0-2.28-1.82-3.96-4.34-3.96-2.46 0-3.78 1.1-5.04 2.98l1.16.84c1.12-1.56 2.16-2.4 3.76-2.4 1.52 0 2.82 1.04 2.82 2.68 0 1.4-.78 2.48-2.92 4.4l-5.08 4.48z" fill="#eed9b7"/></g></g></svg>

<?xml version="1.0" encoding="UTF-8"?>
<svg width="248px" height="180px" viewBox="0 0 248 180" version="1.1" xmlns="http://www.w3.org/2000/svg" xmlns:xlink="http://www.w3.org/1999/xlink">
    <!-- Generator: Sketch 46.2 (44496) - http://www.bohemiancoding.com/sketch -->
    <title>real-time-privacy-2</title>
    <desc>Created with Sketch.</desc>
    <defs></defs>
    <g id="Mini-site" stroke="none" stroke-width="1" fill="none" fill-rule="evenodd">
        <g id="Privacy" transform="translate(-288.000000, 0.000000)">
            <g id="Step-2" transform="translate(288.000000, 0.000000)">
                <g id="Members" transform="translate(48.000000, 140.000000)">
                    <path d="M30,10 L2,10 C0.900000034,10 0,10.9000001 0,12 L0,30 C0,31.1000002 0.900000034,32 2,32 L12.6800003,32 C12.1800003,33.2199992 10.96,34.7800006 8,36 L24,36 C21.0400008,34.7800006 19.8199997,33.2199992 19.3199997,32 L30,32 C31.1000002,32 32,31.1000002 32,30 L32,12 C32,10.9000001 31.1000002,10 30,10 Z M30,28 L2,28 L2,12 L30,12 L30,28 Z" id="Shape" fill="#DDA032"></path>
                    <path d="M89,0 L61,0 C59.9,0 59,0.90000008 59,2 L59,20 C59,21.1000002 59.9,22 61,22 L71.6800003,22 C71.1800003,23.2199992 69.96,24.7800006 67,26 L83,26 C80.0400008,24.7800006 78.8199997,23.2199992 78.3199997,22 L89,22 C90.1000002,22 91,21.1000002 91,20 L91,2 C91,0.90000008 90.1000002,0 89,0 Z M89,18 L61,18 L61,2 L89,2 L89,18 Z" id="Shape" fill="#78AF9F"></path>
                    <path d="M150,14 L122,14 C120.9,14 120,14.9000001 120,16 L120,34 C120,35.1000002 120.9,36 122,36 L132.68,36 C132.18,37.2199992 130.96,38.7800006 128,40 L144,40 C141.040001,38.7800006 139.82,37.2199992 139.32,36 L150,36 C151.1,36 152,35.1000002 152,34 L152,16 C152,14.9000001 151.1,14 150,14 Z M150,32 L122,32 L122,16 L150,16 L150,32 Z" id="Shape" fill="#659CC8"></path>
                    <path d="M6,22 L18,22 L18,23 L6,23 L6,22 Z M6,19 L14,19 L14,20 L6,20 L6,19 Z M6,16 L22,16 L22,17 L6,17 L6,16 Z" id="Code" fill="#DDA032"></path>
                    <path d="M65,12 L77,12 L77,13 L65,13 L65,12 Z M65,9 L73,9 L73,10 L65,10 L65,9 Z M65,6 L81,6 L81,7 L65,7 L65,6 Z" id="Code" fill="#78AF9F"></path>
                    <path d="M126,26 L138,26 L138,27 L126,27 L126,26 Z M126,23 L134,23 L134,24 L126,24 L126,23 Z M126,20 L142,20 L142,21 L126,21 L126,20 Z" id="Code" fill="#659CC8"></path>
                </g>
                <g id="Lines" transform="translate(64.000000, 115.000000)" stroke-linejoin="round" stroke-width="2">
                    <path d="M16,1 L26,1" id="Line" stroke="#DDA032" stroke-dasharray="2" transform="translate(21.000000, 1.000000) scale(-1, 1) translate(-21.000000, -1.000000) "></path>
                    <path d="M28,1 L38,1" id="Line" stroke="#78AF9F" stroke-dasharray="2" transform="translate(33.000000, 1.000000) scale(-1, 1) translate(-33.000000, -1.000000) "></path>
                    <path d="M82,1 L92,1" id="Line" stroke="#78AF9F" stroke-dasharray="2" transform="translate(87.000000, 1.000000) scale(-1, 1) translate(-87.000000, -1.000000) "></path>
                    <path d="M94,1 L104,1" id="Line" stroke="#659CC8" stroke-dasharray="2" transform="translate(99.000000, 1.000000) scale(-1, 1) translate(-99.000000, -1.000000) "></path>
                    <path d="M0,1 L10,1 L10,1 C12.209139,1 14,2.790861 14,5 L14,31" id="Line" stroke="#DDA032" transform="translate(7.000000, 16.000000) scale(-1, 1) translate(-7.000000, -16.000000) "></path>
                    <path d="M106,1 L116,1 L116,1 C118.209139,1 120,2.790861 120,5 L120,35" id="Line" stroke="#659CC8"></path>
                    <path d="M40,1 L53,1 L53,1 C55.209139,1 57,2.790861 57,5 L57,21" id="Line" stroke="#78AF9F"></path>
                    <path d="M63,1 L76,1 L76,1 C78.209139,1 80,2.790861 80,5 L80,21" id="Line" stroke="#78AF9F" transform="translate(71.500000, 11.000000) scale(-1, 1) translate(-71.500000, -11.000000) "></path>
                </g>
                <g id="Server" transform="translate(57.000000, 31.000000)" fill="#5D5B5C">
                    <path d="M82,39 L52,39 C50.3500001,39 49,40.3499994 49,42 L49,48 C49,49.6500006 50.3500001,51 52,51 L82,51 C83.6500003,51 85,49.6500006 85,48 L85,42 C85,40.3499994 83.6500003,39 82,39 Z M55,48 L52,48 L52,42 L55,42 L55,48 Z M61,48 L58,48 L58,42 L61,42 L61,48 Z M67,48 L64,48 L64,42 L67,42 L67,48 Z M73,48 L70,48 L70,42 L73,42 L73,48 Z M82,25 L52,25 C50.3500001,25 49,26.3500001 49,28 L49,34 C49,35.6500006 50.3500001,37 52,37 L82,37 C83.6500003,37 85,35.6500006 85,34 L85,28 C85,26.3500001 83.6500003,25 82,25 Z M55,34 L52,34 L52,28 L55,28 L55,34 Z M61,34 L58,34 L58,28 L61,28 L61,34 Z M67,34 L64,34 L64,28 L67,28 L67,34 Z M73,34 L70,34 L70,28 L73,28 L73,34 Z M82,31 L79,31 L79,28 L82,28 L82,31 Z" id="Shape"></path>
                    <g id="Sleep" transform="translate(65.000000, 0.000000)">
                        <polygon id="z" transform="translate(3.592285, 14.269260) rotate(-5.000000) translate(-3.592285, -14.269260) " points="0.786132812 17.8888889 0.786132812 16.9113498 4.36132812 12.0646701 4.36132812 11.9826389 0.806640625 11.9826389 0.806640625 10.6496311 6.33007812 10.6496311 6.33007812 11.7092014 2.83007812 16.4738498 2.83007812 16.5490451 6.3984375 16.5490451 6.3984375 17.8888889"></polygon>
                        <polygon id="z" points="8.56391059 13.6773563 8.56391059 12.4283077 13.1321094 6.23547224 13.1321094 6.13065697 8.59011441 6.13065697 8.59011441 4.42740885 15.6476759 4.42740885 15.6476759 5.78127275 11.1755577 11.869293 11.1755577 11.9653736 15.7350219 11.9653736 15.7350219 13.6773563"></polygon>
                        <polygon id="z" transform="translate(23.038355, 6.166742) rotate(5.000000) translate(-23.038355, -6.166742) " points="18.6750217 11.7949636 18.6750217 10.2749717 24.234153 2.73878798 24.234153 2.61123621 18.7069096 2.61123621 18.7069096 0.538519965 27.2953954 0.538519965 27.2953954 2.18606365 21.8531866 9.59469558 21.8531866 9.71161803 27.4016886 9.71161803 27.4016886 11.7949636"></polygon>
                    </g>
                </g>
                <g id="Nr">
                    <circle id="Oval" stroke="#EED9B7" stroke-width="2" opacity="0.146116395" cx="20" cy="20" r="19"></circle>
                    <path d="M14.47,27 L24.25,27 L24.25,25.56 L16.83,25.56 L20.57,22.24 C23.03,20.1 24.11,18.84 24.11,16.8 L24.11,16.76 C24.11,14.48 22.29,12.8 19.77,12.8 C17.31,12.8 15.99,13.9 14.73,15.78 L15.89,16.62 C17.01,15.06 18.05,14.22 19.65,14.22 C21.17,14.22 22.47,15.26 22.47,16.9 C22.47,18.3 21.69,19.38 19.55,21.3 L14.47,25.78 L14.47,27 Z" id="2" fill="#EED9B7"></path>
                </g>
            </g>
        </g>
    </g>
</svg>
